X: 35
T: Praeludia organi op. 5 – Maestoso
C: Franciszek Walczyński
%%abc-version 2.0
%%abcx-abcm2ps-target-version 5.9.1 (29 Sep 2008)
%%abc-creator hum2abc beta
%%abcx-conversion-date 2021/10/04 07:38:39
%%abc-edited-by Andrzej Borzym
%%abc-edited-by Krzysztof Stępień
%%abcx-initial-encoding-date 2021-07-26
%%humdrum-veritas 753839120
%%humdrum-veritas-data 1761022040
%%linebreak <none>
%%barnumbers 0
L: 1/4
M: C
N: Derived from pl-kozmzk--mzk-m-159--024_walczynski-franciszek--praeludia-organi-op-5-maestoso.krn
Q: "24. Mestoso."
%%staves {1 2}
V: 1 clef=treble
V: 2 clef=bass
K: E
[V:1] edcB & G4 | 
[V:2] C^B,C2- & C,D,E,^E, | 
[V:1] AGFc & FED2 | 
[V:2] C=B,B,2 & F,G,A,2 | 
[V:1] BeBA & E2F2 | 
[V:2] B,4- & G,2D,2 | 
[V:1] AGF2 & FE2D | 
[V:2] B,4 & E,2B,,2 | 
[V:1] GFEA & D2CF | 
[V:2] G,3C & ^B,,2C,A,, | 
[V:1] GFEF & EDCD- | 
[V:2] B,A,G,A, & =B,,^B,,C,F,, | 
[V:1] E2D2 & DC2^B, | 
[V:2] G,2F,2 & G,,4 | 
[V:1] !fermata!C4 & G,4 |]  
[V:2] E,4 & !fermata!C,4 |]  


